X:1
T:Title
%%score { ( 1 3 ) | ( 2 4 ) }
L:1/8
M:6/8
K:G
V:1 treble nm="Grand Piano"
V:3 treble 
V:2 bass 
V:4 bass 
V:1
 z3 z2[Q:1/4=100] D | D2 E F2 E | D2 E F2 E | DGB [Fd]2 [Fc] | B3- B z D | D2 E F2 E | D2 E F2 G | %7
 [^CA]2 [CA] [CA]2 [CA] | A3 .D2 D | [B,D]2 [B,E] [CF]2 [CE] | [B,D]2 [B,E] F2 E | %11
 z GB [Fd]2 [Fc] | B3- B z B | d2 e dBG | [Ec]2 [Ec] cB[EA] | G2 G FB[FA] | G6 | d3 d3 | d3 z3 | %19
 [Gd]>[G^c][Gd] [Fe]2 [Fd] | d3 .B3 | d3 d3 | d2 d [D^c]2 [DB] | [^CA]2 [C^G] [C=G]2 [CE] | %24
[M:7/8] z2 A, [Fd]3 z |[M:3/4] d3 d3 | d4 z2 | [Gd]>[G^c] [Gd] [Fe]2 [Fd] | d3 B3 | d3 [A^d]3 | %30
 z2 z d z2 | z2 z [DF]3 |[M:5/8] [G,B,DG]-[G,B,DG]- [G,B,DG]3 |] %33
V:2
 z3 z2 [G,B,] | [G,B,]2 [G,B,] [D,A,C]2 [D,F,C] | [G,B,]2 [G,B,] [D,A,C]2 [D,F,C] | %3
 [G,B,]2 [G,D] [D,A,]2 [D,D] | [G,DG]3- [G,DG] z [G,B,] | [G,B,]2 [G,B,][K:bass] [D,A,C]2 [D,F,C] | %6
 [G,B,]2 [G,B,] [E,G,B,]2 [E,G,B,] | [A,,E,]2 [A,,E,] [A,,G,]2 [A,,G,] | %8
 [D,F,C]3- [D,F,C] z [D,F,C] | [G,,G,]2 [G,,G,] [D,A,]2 [D,F,] | %10
 [G,,G,]2 [G,,G,] [D,A,C]2 [D,F,C] | [G,,G,]2 [G,D] [D,A,]2 [D,D] | [G,DG]3- [G,DG] z [G,DG] | %13
 [G,B,=F]2 [G,B,F] [G,B,F]2 [G,B,F] | [C,C]2 [C,G,] [A,,A,][B,,^G,][C,A,] | %15
 [D,B,D]2 [D,B,D] [A,D][K:treble][DF][D,C] | [G,B,]6 | [G,B,G]2 [G,B,] .[^G,B,=F]2 G, | %18
 [A,CF]2[K:bass] [A,C] D,2 D, | [D,B,]>[D,_B,][D,=B,] [D,C]2 [D,C] | [G,G]3- [G,DG]3 | %21
 [G,B,G]2 [G,B,] .[G,B,=F]2 G, | [A,F]2 [A,F][K:bass] [A,,F,]2 [A,,F,] | %23
 [A,,E,]2 [A,,E,] [A,,E,]2 [A,,G,] |[M:7/8] F,2 z z z z2 | %25
[M:3/4][K:treble] [G,B,G]2 [G,B,] [^G,B,=F]2 [G,B,] | [A,CF]2[K:bass] [A,C] D,2 D, | %27
 [D,B,]>[D,_B,] [D,=B,] [D,C]2 [D,C] | [G,B,G]3 [G,DG]3 | [G,G]3[K:bass] F,3 | %30
 [E,B,]2 .[E,^G,]2[K:treble] c[K:bass]C, | D,4 B,C |[M:5/8] G,,-G,,- G,,3 |] %33
V:3
 x6 | x6 | x6 | x6 | x6 | x6 | x6 | x6 | x6 | x6 | x6 | .D3 z3 | x6 | x6 | z3 .E3 | x6 | x6 | %17
 z2 G z =FB, | z2 F D2 D | x6 | x6 | z2 G z =FB, | x6 | x6 |[M:7/8] D3 z z z2 | %25
[M:3/4] z2 .G2 z =F | z2 F D2 D | x6 | x6 | x6 | [^Ge]2 [EB] E2 [A,EA] | [B,DG]3 A, z2 | %32
[M:5/8] x5 |] %33
V:4
 x6 | x6 | x6 | x6 | x6 | x3[K:bass] x3 | x6 | x6 | x6 | x6 | x6 | x6 | x6 | x6 | x6 | %15
 z3 .D,3[K:treble] | x6 | x6 | x2[K:bass] x4 | x6 | B,3 z3 | x6 | x3[K:bass] x3 | x6 | %24
[M:7/8] D,3 [D,C]3 z |[M:3/4][K:treble] x6 | x2[K:bass] x4 | x6 | x6 | B,6[K:bass] | %30
 z2 z .[A,,A,]3[K:treble][K:bass] | z2 z D,3 |[M:5/8] x5 |] %33

